X:1
T:Ung gay bergier (4v)
T:Ung gay bergier (4v)
T:Thomas Crecquillon
C:Thomas Crecquillon
%%score [ 1 [ 2 3 ] 4 ]
L:1/8
Q:1/4=84
M:2/2
K:C
V:1 treble nm="Soprano" snm="S"
V:2 treble-8 nm="Tenor 1" snm="T 1"
V:3 treble-8 nm="Tenor 2" snm="T 2"
V:4 bass nm="Bass" snm="B"
V:1
 G2 GG AGAB | c2 c2 B4 | A4 z4 | G2 GG AGAB | c2 B4 A2- | A2 G4 F2 | G4 d2 cB | AcBA GF E2 | %8
w: Ung gay ber- gier pri- ait u-|ne ber- gie-|re,|ung gay ber- gier pri- ait u-|ne ber- *||re en luy fai-|sant du jeu d'a- mours re- ques-|
 DEF G2 F G2 | z2 c2 BAGB | A G2 F GG AB | c2 B2 G2 A2- | A2 G4 F2 | GGGG AGAB | c2 c2 B4 | A4 z4 | %16
w: * * * * * te,|en luy fai- sant du|jeu d'a- * mours re- que- *|||te, al- lez, dict el- le, ti- rez|vous ar- rie-|re,|
 G2 GG AGAB | c2 B4 A2- |"^#" A2 G4 F2 | G4 d2 cB | AcBA GF E2 | DEF G2 F G2 | z2 c2 BAGB | %23
w: al- lez, dict el- le, ti- rez|vous ar- rie-||re, vos- tre par-|ler je trou- ve mal- hon- nes-|* * * * * te,|vos- tre par- ler je|
 A G2 F GGAB | c2 B2 G2 c2- | cB A4 G2 |[M:3/4] A4 c2 | B4 A2 | G4 A2 | G4 F2 | E4 D2 | %31
w: trou- * * * ve mal- hon-|nes- * * *||te, ne|pen- sez|pas que|fe- roye|tel de-|
[M:2/2] C2 E2 EF G2 | z2 G2 G2 G2 | E2 G2 F4 | ECCD EC G2 | E4 z4 |: z2 G2 GABG | d2 cA c2 G2 | %38
w: fault, par quoy, ces- sez,|fai- re tel-|le pri- e-|re, car tu n'as pas la lan-|ce,|car tu n'as pas la|lan- * * * ce,|
 G2 GA BG d2 | cA c2 BG B2 | AF A3 G G2- |"^#" G2 F2 G4 |1 z8 :|2 G2 GA BG d2 || G2 GA B4- | B8 |] %46
w: car tu n'as pas la lan-|* ce, car tu n'as pas|la _ lan- ce qui|_ me fault,||car tu- n'as pas la lan-|ce qui me fault.|_|
V:2
 z4 d2 dd | edef g2 g2 | f4 e4 | d2 e4 d2 | e2 g4 f2 | d2 e2 d4 | d4 d2 eg | fedf ed c2 | %8
w: Ung gay ber-|gier pri- ait u- ne ber-|gie- *||||re en luy fai-|sant du jeu d'a- mours re ques-|
 dB c2 d2 z2 | z4 d3 e | fc d2 cded | cA dB e4- | e2 c2 d4 | B4 d2 dd | edef g2 g2 | f4 e4 | %16
w: * * * te,|en luy|fai- sant du jeu d'a- mours re-|ques- * * * *||te, al- lez, dict|el- le, ti- rez vous ar-|rie- *|
 d2 e4 d2 | e2 g4 f2 | d2 e2 d4 | d4 d2 eg | fedf ed c2 | dB c2 d2 z2 | z4 d3 e | fc d2 cded | %24
w: re, ti- rez|vous ar- *|rie- * *|re, vos- tre par-|ler je trou- ve mal- hon- nes-|* * * te,|vos- *|* stre par- ler je trou- ve|
 cA dB e2 c2 | e8 |[M:3/4] c4 e2 | e4 c2 | e4 e2 | e4 c2 | c4 A2 |[M:2/2] A2 c2 cd e2- | %32
w: mal- hon- nes- * * *||te, ne|pen- sez|pas que|fe- roye|tel de-|fault, par quoy, ces- sez,|
 e2 e2 d2 d2 | c2 G2 A2 B2 | c8 | z8 |: c2 cd ec g2 | fd f2 cc e2- | e2 d2 z2 f2 | ffec g2 gd | %40
w: _ fai- re tel-|le pri- e- *|re,||car tu n'as pas la lan-|lan- * * ce, la lan-|* ce, car|tu n'as pas la lan- ce, la|
 f3 c e2 e2 | d2 d2 ddec |1 g2 e2 z4 :|2 g2 e2 d4 || e4 d4- | d8 |] %46
w: lan- ce qui me|fault,- car tu n'as pas la|lan- ce,|lan- ce qui|me fault.|_|
V:3
 z8 | z4 G2 GG | AGAB c2 c2 | B4 A4 | z2 G2 G2 A2 | B2 c2 A4 | G4 z4 | z8 | G2 Ac BAGB | %9
w: |Ung gay ber-|gier pri- ait u- ne ber-|gie- re,-|pri- ait u-|ne ber- gie-|re||en luy fai- sant du jeu d'a-|
 A G2 F G2 z2 | c2 BA GBAG- | GF G3 C c2 | B2 G2 A4 | G3 F D4 | z4 G2 GG | AGAB c2 c2 | B4 A4 | %17
w: mours re- ques- te,|en luy fai- sant du jeu d'a-|* mours re- * ques-||* * te,|al- lez, dict|el- le, ti- rez vous ar-|rie- re,|
 z2 G4 A2 | B2 c2 A4 | G4 z4 | z8 | G2 Ac BAGB | A G2 F G2 z2 | c2 BA GBAG- | GF G3 E A2 | c4 B4 | %26
w: ti- rez|vous ar- rie-|re,||vos- tre par- ler je trou- ve|mal- hon- nes- te,|vos- tre par- ler je trou- ve|_ mal- hon- * nes-||
[M:3/4] A4 E2 | G4 A2 | B4 c2 | B4 A2 | G4 F2 |[M:2/2] E4 E2 EF | G2 c2 c2 B2 | c4 d4 | G4 z4 | %35
w: te, ne|pen- sez|pas que|fe- roye|tel de-|fault, par quoy, ces-|sez fai- re tel-|le prie-|re,|
 G2 GA BG d2 |: cA c4 G2 | z4 z2 G2 | GABG d4 | A2 z A e2 dB | d2 cA B2 c2 | A2 A2 G4 |1 %42
w: car tu n'as pas la lan-|ce, la lan- ce,|car|tu n'as pas la lan-|ce, la lan- ce, la|lan- ce, la lan- ce|qui me fault,|
 G2 GA BG d2 :|2 G8- || G8- | G8 |] %46
w: car tu n'as pas la lan-||||
V:4
 z8 | z8 |"^#" D,2 D,D, E,D,E,F, | G,2 G,2 F,4 | E,2 E,2 E,2 F,2 | G,2 C,2 D,4 | G,,4 z4 | z8 | %8
w: ||Ung gay ber- gier pri- ait u-|ne ber- gie-|re, pri- ait u-|ne ber- gie-|re||
 G,2 F,E, D,F,E,D, | C,B,, A,,2 G,,2 G,2 | F,E,D,F, E,D,C,B,, | A,,2 G,,2 C,2 A,,2 | E,4 D,4 | %13
w: en luy fai- sant du jeu d'a-|mours re- ques- te, en|luy fai- sant du jeu d'a- mours re-|ques- * * *||
 G,,4 z4 | z8 | D,2 D,D, E,D,E,F, | G,2 G,2 F,4 | E,2 E,2 E,2 F,2 | G,2 C,2 D,4 | G,,4 z4 | z8 | %21
w: te,||al- lez, dict el- le, ti- rez|vous ar- rie-|re, ti- rez vous|ar- * rie-|re,||
 G,2 F,E, D,F,E,D, |"^#" C,B,, A,,2 G,,2 G,2 | F,E,D,F, E,D,C,B,, | A,,2 G,,2 C,2 A,,2- | %25
w: vos- tre par- ler je trou- ve|ma- hon- nes- te, vos-|tre par- ler je trou- ve mal- hon-|nes- * * *|
 A,,B,,C,D, E,4 |[M:3/4] A,,4 A,,2 | E,4 F,2 | E,4 A,,2 | E,4 F,2 | C,4 D,2 | %31
w: |te, ne|pen- sez|pas que|fe- roye|tel de-|
[M:2/2] A,,4 C,2 C,D, | E,2 C,2 G,2 G,2 | C,2 E,2 D,4 | C,4 z2 C,2 | C,D,E,C, G,2 F,D, |: %36
w: fault, par quoy, ces-|sez fai- re tel-|le pri- e-|re, car|tu n'as pas la lan- ce, la|
 F,2 C,2 z4 | z4 C,2 C,D, | E,C, G,4 D,2 | z D, A,2 G,E, G,2 | F,D, F,2 E,2 C,2 | D,4 G,,2 C,2 |1 %42
w: lan- ce,|car tu n'as|pas la lan- ce,|la lan- ce, la lan-|ce, la lan- ce qui|me fault, car|
 C,D,E,C, G,2 F,D, :|2 C,D,E,C, G,3 F, || E,2 C,2 G,4 | G,,8 |] %46
w: tu n'as pas la lan- ce, la|lan- ce qui me fault, _|_ qui me|fault.|

